custom_files/中继器背景框_u54.svg

<svg xmlns:xlink="http://www.w3.org/1999/xlink" width="213" height="154" xmlns="http://www.w3.org/2000/svg"><defs><filter x="-211" y="265" width="213" height="154" filterUnits="userSpaceOnUse" id="b"><feOffset dx="1" dy="1" in="SourceAlpha" result="shadowOffsetInner"/><feGaussianBlur stdDeviation=".5" in="shadowOffsetInner" result="shadowGaussian"/><feComposite in2="shadowGaussian" operator="atop" in="SourceAlpha" result="shadowComposite"/><feColorMatrix values="0 0 0 0 0 0 0 0 0 0 0 0 0 0 0 0 0 0 0.34901960784313724 0" in="shadowComposite"/></filter><path d="M-210 295a29 29 0 0 1 29-29h151a29 29 0 0 1 29 29v92a29 29 0 0 1-29 29h-151a29 29 0 0 1-29-29v-92z" fill="#fff" id="a"/></defs><g transform="translate(211 -265)"><use xlink:href="#a" filter="url(#b)"/><use xlink:href="#a"/></g></svg>

﻿<?xml version="1.0" encoding="utf-8"?>
<svg version="1.1" xmlns:xlink="http://www.w3.org/1999/xlink" width="213px" height="154px" xmlns="http://www.w3.org/2000/svg">
  <defs>
    <filter x="-211px" y="265px" width="213px" height="154px" filterUnits="userSpaceOnUse" id="filter31">
      <feOffset dx="1" dy="1" in="SourceAlpha" result="shadowOffsetInner" />
      <feGaussianBlur stdDeviation="0.5" in="shadowOffsetInner" result="shadowGaussian" />
      <feComposite in2="shadowGaussian" operator="atop" in="SourceAlpha" result="shadowComposite" />
      <feColorMatrix type="matrix" values="0 0 0 0 0  0 0 0 0 0  0 0 0 0 0  0 0 0 0.34901960784313724 0  " in="shadowComposite" />
    </filter>
    <g id="widget32">
      <path d="M -210 295  A 29 29 0 0 1 -181 266 L -30 266  A 29 29 0 0 1 -1 295 L -1 387  A 29 29 0 0 1 -30 416 L -181 416  A 29 29 0 0 1 -210 387 L -210 295  Z " fill-rule="nonzero" fill="#ffffff" stroke="none" />
    </g>
  </defs>
  <g transform="matrix(1 0 0 1 211 -265 )">
    <use xlink:href="#widget32" filter="url(#filter31)" />
    <use xlink:href="#widget32" />
  </g>
</svg>
